X: 15519
T: Glenside, The
R: polka
M: 2/4
K: Ddorian
|:A>B AG|EG CG|A>B AG|AB dc|
A>B AG|EG/E/ C>D|EA GE|D2 FG:|
|:Ad de|dc AG|Ad de|dc AB|
ce cA|GE C>D|EA GE|D2 FG:|

